X: 37
T: the Glass of Beer
R: reel
Z: 2012 John Chambers <jc@trillian.mit.edu>
B: "100 Essential Irish Session Tunes" 1995 Dave Mallinson, ed.
M: 4/4
L: 1/8
K: Bm
   de | "Bm"fB~B2 fBaB | fBdB "A"e2de | "Bm"fB~B2 fgfe | "D"dfaf "A"((3efe) :|
|: dB | "D"d3e    f3e  | defd "A"edBc |  "D"d2de  fgfe |    dfaf "A"((3efe) :|

%%sep 2 1 500
%%sep 1 1 500

